X: 22
T: Recruiting Officer, The
M: 6/8
L: 1/8
G: Pleasures of Salisbury
K: D
|:def ecA|d3 F3|GAB AFD|E3 E3|def ecA|dcB AGF|
GAB ABc|d3 d3:||:agf dBA|a3 b3|Bcd efd|
c3 A3|agf dcB|dcB AGF|GAB ABc|d3 d3:|]

